X:0
T: Style of the last Century (The)
T: Seann stoile (An)
S: Fraser - 1816 Collection
M: C
K: Dmin
C|A,<DD>A, F>A, D<A|!trill!F>D C<A, F<A,C>B,|A,<DD>A, F>A, D<F|C<A,!trill!A,>^C D2-D:|
f|!trill!c>A A<c F<F {AB}c>A|!trill!f>e{c}d>c A<cd<f|{AB}!trill!c>A A<c F<F {AB}c>A|C<A,!trill!A,>^C D2 Df|
!trill!c>A A<c F<F {AB}c>A|!trill!f>e{c}d>c (A/c/)d/e/ f<d|{AB}!trill!c>A G<A F<AE<A|C<A,!trill!A,>^C {C}D2D|]

